public/avatar/hat/63.svg

<svg xmlns:xlink="http://www.w3.org/1999/xlink" height="92.9" width="100.7" xmlns="http://www.w3.org/2000/svg"><use height="40.3" transform="translate(19.55 34.85)" width="39.2" xlink:href="#a"/><defs><g id="a"><path d="M10.3 6.05Q9.2 5.2 5.75 4L.1 1.2l-2-3.2 1.3-.5 3.4-.55q5.5-.15 9.45 4.55 3.55 4.2 3.7 13.45.1 4.6-.55 8.4V19q-2.8-9.65-3.8-11.5-.45-.85-1.3-1.45" fill-rule="evenodd" transform="translate(19.1 14.9)"/><path d="M1.25-1.8Q1.25-.85.2 1q-1.25 2.15-2.6 2.7l-1.25-.2q-1-.25-2.25.5-1.3.8-1.85 1.85L-10.4 11q-1.5 2.6-3.75 2.6-2.3.05-1.6-3.25 1-4.7 2-6.65Q-12 .3-8.25-1.5q3.65-1.7 10.5-.65l-1 .35" fill-rule="evenodd" transform="translate(19.1 14.9)"/><path d="M5.45 2.1Q8 3.3 7.9 3.7q-.15.65-3.8.3l-5.2-.65q-1.45-.3-2.7-1.25l-.95-.9 3.15-2q1.05-.45 1.75 0L1.75.35l3.7 1.75" fill-rule="evenodd" transform="translate(19.1 14.9)"/><path d="M-2.75-.65q4.55-1.1 6.6-.65L8.6.7q4.3 1.8 4.15 8.8-.9-1.4-4-3-1.35-.65-3.15-.65l-6.2-.5Q-4.3 4.7-4.3 2.1q.05-2.4 1.55-2.75m-11.15 14.5-.2.35-1.65 5.5q-.85-4.35-.15-8 .4-2.3 1.4-4.15l.9-1.35 1 1.15-1.3 6.5m29.15-3.6 2.5 4.9q1.15 2.35 1.15 4.1l.5 3.75-.15 1.35-2.2-1.05-1.8-13.05" fill-rule="evenodd" transform="translate(19.1 14.9)"/><path d="m18.1 23.85-2.7-.95-.4-8.4.5-3.75 2.6 13.1m-33.85-9-.15 7.5-.85 1.5-1.85.65.5-2.8V19q0-3.8.5-5.5l3.35-6.8-1.5 8.15" fill-rule="evenodd" transform="translate(19.1 14.9)"/><path d="M-18.6 24.5q.7-5 .7-6 0-4.7.3-5.5l2.5-5.65q1.7-5.5 5.5-8.15 3.85-2.7 9-1.85l3.95-.75q4.3-.45 6.05 1.1 2.1 1.85 4 4.8 1.85 2.95 1.85 4.35 0 1.85.35 4.35l1.25 1.85q1.35 2.35 1.9 4.65.85 3.65.85 7.2" fill="none" stroke="#8a8a8a" stroke-linecap="round" stroke-linejoin="round" transform="translate(19.1 14.9)"/><path d="m-6.75 0-2.5 3.2-3.35 5.65-1.65 2m4.15-2q-1.8 2.85-2.65 3.35-.85.5-2.5 1m.15 2-1.75 6.25m31.75-7.6 1.85 5.35.15 2.3M-3.4.7l3.15 3" fill="none" stroke="#8a8a8a" stroke-linecap="round" stroke-linejoin="round" transform="translate(19.1 14.9)"/><path d="M.9-3.4q3.7 0 11.85 1.85 1.35 2.3-1.6 3.3L5.4 3.1l-5.7.55-8.95-.05q-5.55.1-6.7-.75-1.1-.8 1.35-2.75 2.15-1.65 7.6-2.7l7.9-.8" fill="#296e2a" fill-rule="evenodd" transform="translate(19.1 14.9)"/><path d="M-12.75 2.5Q-7-2.6-1.85-2.75q5.1-.1 10.5 2.75l2.5 2L6 3.4q-8-.25-9.6-.15l-5.65.35-3.5-1.1" fill-rule="evenodd" transform="translate(19.1 14.9)"/><path d="M-10.25-.55-3.9.1Q2.05 0 7.65-1.3l5.1-.25q1.95.95 2.3 2.7.35 1.75-1.15 2.6-1.55.95-18.15 1.7-12.15.4-12.35-1.35-.2-2.65 2.2-4.5l4.15-.15" fill="#379439" fill-rule="evenodd" transform="translate(19.1 14.9)"/><path d="M7.75-2.4Q6.4-3.9 6.1-5.75l-.5-6Q7.75-8.9 8.4-6.9l1.7 5.15-2.35-.65M-10.9-.25q-1-2.65-.7-5.15.35-2.5 1.5-6.15l.85 7.15q.15 1.65-.15 3.85l-1.5.3" fill="#296e2a" fill-rule="evenodd" transform="translate(19.1 14.9)"/><path d="m7.75-2.4-2-.15-1-1.7-.85-6.3q2.2 1.5 2.5 3L7.75-2.4M-10.1-4.55q-.15-3.35 1.2-4.35l2.5-1.5q.15 4 0 5.35-.2 1.3-.7 2.65l-1.8 1.15-1.2-3.3" fill="#296e2a" fill-rule="evenodd" transform="translate(19.1 14.9)"/><path d="M-6.9-5.75q.8-1.65 2.15-2.65l2.5-2.15v4.8q0 1.7-.65 3.2l-2.7.65-1.65.15.35-4M5.6-4.4l.65 2-3.5-.65q-.9-.3-1.35-2.2L.75-9.4l2.5 1.5q1 .85 2.35 3.5" fill="#296e2a" fill-rule="evenodd" transform="translate(19.1 14.9)"/><path d="m2.75-3.05-6.5-.2Q-3.4-4.9-2.4-5.9t1.65-2.5L2.6-4.9l.15 1.85" fill="#296e2a" fill-rule="evenodd" transform="translate(19.1 14.9)"/><path d="m13.4-.05-2-.2v-3.5l2.35-8.8q1.15 7.5.65 9.8-.5 2.35-1 2.7" fill="#379439" fill-rule="evenodd" transform="translate(19.1 14.9)"/><path d="m12.75-1.55-2.65-.2q-1.2-1.8-1.7-4.3L6.75-14.9l4.65 8.35 1.35 5" fill="#379439" fill-rule="evenodd" transform="translate(19.1 14.9)"/><path d="M15.25-1.25q-.5 1.85-3.15 2.5-.5-1.8.3-4 .85-2.15 4.2-4.8l-1.35 6.3m-28.5-1.65q.5 1.65.65 3.15l-1.8 1q-1.35-1.65-1.5-4l-.5-8.15 3.15 8" fill="#379439" fill-rule="evenodd" transform="translate(19.1 14.9)"/><path d="M-10.75-.75-11.6.6h-1.5l-.3-1.15v-5.2l.3-8.8q1.7 6.15 1.85 8.3l.5 5.5M8.4-.4q-.7-.55-1.5-3.4l-.65-2.75 2.85 1.8q1.3 1.2 2.8 4.85-2.8 0-3.5-.5" fill="#379439" fill-rule="evenodd" transform="translate(19.1 14.9)"/><path d="M-6.9-5.4Q-8.1-.55-8.9.75-9.75 2.1-12.25.1l1.85-2.5 3.5-3" fill="#379439" fill-rule="evenodd" transform="translate(19.1 14.9)"/><path d="M-11.3-2.95q3.3-1 2.8 2.35l.85-.95q1.05-.7 1.85.4Q-4.5.7-6.8 1.5q2.55 1.6.85 2.85-1.75 1.3-2.65-.85.7 2.3-2.1 2.2-2.85-.15-.7-2.7-3.2.35-2.7-2 .3-1.45 1.45-1.15.6.15 1.1.55-1.4-2.8.25-3.35" fill="#fff" fill-rule="evenodd" transform="translate(19.1 14.9)"/><path d="m-11.1-.25.65.2.05-1.35.5.95.35-.35.35 1.35h.05L-9 .3l1.05-.55-.3.6.95-.3-.55.65 1 .1-1.7.65 1.8.65H-7.9l.75.75-.95-.2v.55l-1-.85-.2-.05-.15.25v.9l-.25-.5-.6.95-.05-.8-.35.15.35-.85-.75-.2-.75.15.3-.3q-1.05-.3-.9-.4l.95-.25-.6-.65 1.3.45v-.05l-.3-1.4" fill="#ffd099" fill-rule="evenodd" transform="translate(19.1 14.9)"/><path d="M11.5-2.6q.45-1.5 1.55-1.3 3.4.6 1.45 3.35L15.7-1q1.2-.2 1.4 1.2.35 2.2-2.05 1.9Q16.6 4.65 14.5 5q-1.35.25-1.8-.8l-.15-1.15q-.45 2.4-2.9 1-1.55-.85-.6-1.85.5-.5 1.25-.85-3-1.15-1.55-3t2.55.6l.2-1.55" fill="#fff" fill-rule="evenodd" transform="translate(19.1 14.9)"/><path d="m9.9-.35 1 .2-.25-.85.95 1h.05L12-1.4l.5.45.65-1.2v1.1l.5-.15-.3 1.35V.2l.25-.15L14.85 0l-.55.4.95.15-.8.3.85.6-1.8-.2 1.3 1.4-1-.5.3 1-.7-.65-.3.5-.5-1.2-.15-.1-.25.15-.4.75v-.55l-1 .6.35-.7-.4-.05.75-.6-.6-.55-.75-.2.4-.1q-.7-.75-.65-.8" fill="#ffd099" fill-rule="evenodd" transform="translate(19.1 14.9)"/><path d="M4.15-6.1q3.3 1.05 2.75 3.5-.3 1.2-1.25 2.2 4.05-1.9 4.1 1.75 0 3.65-3.8 2.6Q7.85 8.4 4.4 8.5q-2.2.05-2.65-1.75L1.7 4.9q-1.2 3.75-4.8.95-2.3-1.75-.55-3.1.85-.7 2.15-1.05Q-6-.9-3.25-3.5-.5-6.15.7-1.95q.2-1.25.7-2.4 1.05-2.3 2.75-1.75" fill="#ff42ca" fill-rule="evenodd" transform="translate(19.1 14.9)"/><path d="M.95-.2H1l.9-2.15.7.8L3.9-3.3l-.25 1.75.85-.1-.85 2.1.05.05.45-.2L6.1.55l-.95.5 1.5.45-1.35.35L6.55 3 3.7 2.25 5.45 4.8l-1.5-1.05.3 1.65L3.2 4.25l-.5.7-.6-2-.2-.25-.45.15-.8 1.2.1-.9-1.7.7.75-1.05-.65-.15 1.3-.8L-.4.8-1.55.4-.8.25l-.9-1.35 1.55.5-.2-1.4L.95-.2" fill="#ffbfed" fill-rule="evenodd" transform="translate(19.1 14.9)"/></g></defs></svg>

<?xml version="1.0" encoding="UTF-8" standalone="no"?>
<svg xmlns:xlink="http://www.w3.org/1999/xlink" height="92.9px" width="100.7px" xmlns="http://www.w3.org/2000/svg">
  <g transform="matrix(1.0, 0.0, 0.0, 1.0, 38.65, 49.75)">
    <use height="40.3" transform="matrix(1.0, 0.0, 0.0, 1.0, -19.1, -14.9)" width="39.2" xlink:href="#shape0"/>
  </g>
  <defs>
    <g id="shape0" transform="matrix(1.0, 0.0, 0.0, 1.0, 19.1, 14.9)">
      <path d="M10.3 6.05 Q9.2 5.2 5.75 4.0 L0.1 1.2 -1.9 -2.0 -0.6 -2.5 2.8 -3.05 Q8.3 -3.2 12.25 1.5 15.8 5.7 15.95 14.95 16.05 19.55 15.4 23.35 L15.4 19.0 Q12.6 9.35 11.6 7.5 11.15 6.65 10.3 6.05" fill="#000000" fill-rule="evenodd" stroke="none"/>
      <path d="M1.25 -1.8 Q1.25 -0.85 0.2 1.0 -1.05 3.15 -2.4 3.7 L-3.65 3.5 Q-4.65 3.25 -5.9 4.0 -7.2 4.8 -7.75 5.85 L-10.4 11.0 Q-11.9 13.6 -14.15 13.6 -16.45 13.65 -15.75 10.35 -14.75 5.65 -13.75 3.7 -12.0 0.3 -8.25 -1.5 -4.6 -3.2 2.25 -2.15 L1.25 -1.8" fill="#000000" fill-rule="evenodd" stroke="none"/>
      <path d="M5.45 2.1 Q8.0 3.3 7.9 3.7 7.75 4.35 4.1 4.0 L-1.1 3.35 Q-2.55 3.05 -3.8 2.1 L-4.75 1.2 -1.6 -0.8 Q-0.55 -1.25 0.15 -0.8 L1.75 0.35 5.45 2.1" fill="#000000" fill-rule="evenodd" stroke="none"/>
      <path d="M-2.75 -0.65 Q1.8 -1.75 3.85 -1.3 L8.6 0.7 Q12.9 2.5 12.75 9.5 11.85 8.1 8.75 6.5 7.4 5.85 5.6 5.85 L-0.6 5.35 Q-4.3 4.7 -4.3 2.1 -4.25 -0.3 -2.75 -0.65" fill="#000000" fill-rule="evenodd" stroke="none"/>
      <path d="M-13.9 13.85 L-14.1 14.2 -15.75 19.7 Q-16.6 15.35 -15.9 11.7 -15.5 9.4 -14.5 7.55 L-13.6 6.2 -12.6 7.35 -13.9 13.85" fill="#000000" fill-rule="evenodd" stroke="none"/>
      <path d="M15.25 10.25 L17.75 15.15 Q18.9 17.5 18.9 19.25 L19.4 23.0 19.25 24.35 17.05 23.3 15.25 10.25" fill="#000000" fill-rule="evenodd" stroke="none"/>
      <path d="M18.1 23.85 L15.4 22.9 15.0 14.5 15.5 10.75 18.1 23.85" fill="#000000" fill-rule="evenodd" stroke="none"/>
      <path d="M-15.75 14.85 L-15.9 22.35 -16.75 23.85 -18.6 24.5 -18.1 21.7 -18.1 19.0 Q-18.1 15.2 -17.6 13.5 L-14.25 6.7 -15.75 14.85" fill="#000000" fill-rule="evenodd" stroke="none"/>
      <path d="M-18.6 24.5 Q-17.9 19.5 -17.9 18.5 -17.9 13.8 -17.6 13.0 L-15.1 7.35 Q-13.4 1.85 -9.6 -0.8 -5.75 -3.5 -0.6 -2.65 L3.35 -3.4 Q7.65 -3.85 9.4 -2.3 11.5 -0.45 13.4 2.5 15.25 5.45 15.25 6.85 15.25 8.7 15.6 11.2 L16.85 13.05 Q18.2 15.4 18.75 17.7 19.6 21.35 19.6 24.9" fill="none" stroke="#8a8a8a" stroke-linecap="round" stroke-linejoin="round" stroke-width="1.0"/>
      <path d="M-6.75 0.0 L-9.25 3.2 -12.6 8.85 -14.25 10.85" fill="none" stroke="#8a8a8a" stroke-linecap="round" stroke-linejoin="round" stroke-width="1.0"/>
      <path d="M-10.1 8.85 Q-11.9 11.7 -12.75 12.2 -13.6 12.7 -15.25 13.2" fill="none" stroke="#8a8a8a" stroke-linecap="round" stroke-linejoin="round" stroke-width="1.0"/>
      <path d="M-15.1 15.2 L-16.85 21.45" fill="none" stroke="#8a8a8a" stroke-linecap="round" stroke-linejoin="round" stroke-width="1.0"/>
      <path d="M14.9 13.85 L16.75 19.2 16.9 21.5" fill="none" stroke="#8a8a8a" stroke-linecap="round" stroke-linejoin="round" stroke-width="1.0"/>
      <path d="M-3.4 0.7 L-0.25 3.7" fill="none" stroke="#8a8a8a" stroke-linecap="round" stroke-linejoin="round" stroke-width="1.0"/>
      <path d="M0.9 -3.4 Q4.6 -3.4 12.75 -1.55 14.1 0.75 11.15 1.75 L5.4 3.1 -0.3 3.65 -9.25 3.6 Q-14.8 3.7 -15.95 2.85 -17.05 2.05 -14.6 0.1 -12.45 -1.55 -7.0 -2.6 L0.9 -3.4" fill="#296e2a" fill-rule="evenodd" stroke="none"/>
      <path d="M-12.75 2.5 Q-7.0 -2.6 -1.85 -2.75 3.25 -2.85 8.65 0.0 L11.15 2.0 6.0 3.4 Q-2.0 3.15 -3.6 3.25 L-9.25 3.6 -12.75 2.5" fill="#000000" fill-rule="evenodd" stroke="none"/>
      <path d="M-10.25 -0.55 L-3.9 0.1 Q2.05 0.0 7.65 -1.3 L12.75 -1.55 Q14.7 -0.6 15.05 1.15 15.4 2.9 13.9 3.75 12.35 4.7 -4.25 5.45 -16.4 5.85 -16.6 4.1 -16.8 1.45 -14.4 -0.4 L-10.25 -0.55" fill="#379439" fill-rule="evenodd" stroke="none"/>
      <path d="M7.75 -2.4 Q6.4 -3.9 6.1 -5.75 L5.6 -11.75 Q7.75 -8.9 8.4 -6.9 L10.1 -1.75 7.75 -2.4" fill="#296e2a" fill-rule="evenodd" stroke="none"/>
      <path d="M-10.9 -0.25 Q-11.9 -2.9 -11.6 -5.4 -11.25 -7.9 -10.1 -11.55 L-9.25 -4.4 Q-9.1 -2.75 -9.4 -0.55 L-10.9 -0.25" fill="#296e2a" fill-rule="evenodd" stroke="none"/>
      <path d="M7.75 -2.4 L5.75 -2.55 4.75 -4.25 3.9 -10.55 Q6.1 -9.05 6.4 -7.55 L7.75 -2.4" fill="#296e2a" fill-rule="evenodd" stroke="none"/>
      <path d="M-10.1 -4.55 Q-10.25 -7.9 -8.9 -8.9 L-6.4 -10.4 Q-6.25 -6.4 -6.4 -5.05 -6.6 -3.75 -7.1 -2.4 L-8.9 -1.25 -10.1 -4.55" fill="#296e2a" fill-rule="evenodd" stroke="none"/>
      <path d="M-6.9 -5.75 Q-6.1 -7.4 -4.75 -8.4 L-2.25 -10.55 -2.25 -5.75 Q-2.25 -4.05 -2.9 -2.55 L-5.6 -1.9 -7.25 -1.75 -6.9 -5.75" fill="#296e2a" fill-rule="evenodd" stroke="none"/>
      <path d="M5.6 -4.4 L6.25 -2.4 2.75 -3.05 Q1.85 -3.35 1.4 -5.25 L0.75 -9.4 3.25 -7.9 Q4.25 -7.05 5.6 -4.4" fill="#296e2a" fill-rule="evenodd" stroke="none"/>
      <path d="M2.75 -3.05 L-3.75 -3.25 Q-3.4 -4.9 -2.4 -5.9 -1.4 -6.9 -0.75 -8.4 L2.6 -4.9 2.75 -3.05" fill="#296e2a" fill-rule="evenodd" stroke="none"/>
      <path d="M13.4 -0.05 L11.4 -0.25 11.4 -3.75 13.75 -12.55 Q14.9 -5.05 14.4 -2.75 13.9 -0.4 13.4 -0.05" fill="#379439" fill-rule="evenodd" stroke="none"/>
      <path d="M12.75 -1.55 L10.1 -1.75 Q8.9 -3.55 8.4 -6.05 L6.75 -14.9 11.4 -6.55 12.75 -1.55" fill="#379439" fill-rule="evenodd" stroke="none"/>
      <path d="M15.25 -1.25 Q14.75 0.6 12.1 1.25 11.6 -0.55 12.4 -2.75 13.25 -4.9 16.6 -7.55 L15.25 -1.25" fill="#379439" fill-rule="evenodd" stroke="none"/>
      <path d="M-13.25 -2.9 Q-12.75 -1.25 -12.6 0.25 L-14.4 1.25 Q-15.75 -0.4 -15.9 -2.75 L-16.4 -10.9 -13.25 -2.9" fill="#379439" fill-rule="evenodd" stroke="none"/>
      <path d="M-10.75 -0.75 L-11.6 0.6 -13.1 0.6 -13.4 -0.55 -13.4 -5.75 -13.1 -14.55 Q-11.4 -8.4 -11.25 -6.25 L-10.75 -0.75" fill="#379439" fill-rule="evenodd" stroke="none"/>
      <path d="M8.4 -0.4 Q7.7 -0.95 6.9 -3.8 L6.25 -6.55 9.1 -4.75 Q10.4 -3.55 11.9 0.1 9.1 0.1 8.4 -0.4" fill="#379439" fill-rule="evenodd" stroke="none"/>
      <path d="M-6.9 -5.4 Q-8.1 -0.55 -8.9 0.75 -9.75 2.1 -12.25 0.1 L-10.4 -2.4 -6.9 -5.4" fill="#379439" fill-rule="evenodd" stroke="none"/>
      <path d="M-11.3 -2.95 Q-8.0 -3.95 -8.5 -0.6 L-7.65 -1.55 Q-6.6 -2.25 -5.8 -1.15 -4.5 0.7 -6.8 1.5 -4.25 3.1 -5.95 4.35 -7.7 5.65 -8.6 3.5 -7.9 5.8 -10.7 5.7 -13.55 5.55 -11.4 3.0 -14.6 3.35 -14.1 1.0 -13.8 -0.45 -12.65 -0.15 -12.05 0.0 -11.55 0.4 -12.95 -2.4 -11.3 -2.95" fill="#ffffff" fill-rule="evenodd" stroke="none"/>
      <path d="M-11.1 -0.25 L-10.45 -0.05 -10.4 -1.4 -9.9 -0.45 -9.55 -0.8 -9.2 0.55 -9.15 0.55 -9.0 0.3 -7.95 -0.25 -8.25 0.35 -7.3 0.05 -7.85 0.7 -6.85 0.8 -8.55 1.45 -6.75 2.1 -7.9 2.1 -7.15 2.85 -8.1 2.65 -8.1 3.2 -9.1 2.35 -9.3 2.3 -9.45 2.55 -9.45 3.45 -9.7 2.95 -10.3 3.9 -10.35 3.1 -10.7 3.25 -10.35 2.4 -11.1 2.2 -11.85 2.35 -11.55 2.05 Q-12.6 1.75 -12.45 1.65 L-11.5 1.4 -12.1 0.75 -10.8 1.2 -10.8 1.15 -11.1 -0.25" fill="#ffd099" fill-rule="evenodd" stroke="none"/>
      <path d="M11.5 -2.6 Q11.95 -4.1 13.05 -3.9 16.45 -3.3 14.5 -0.55 L15.7 -1.0 Q16.9 -1.2 17.1 0.2 17.45 2.4 15.05 2.1 16.6 4.65 14.5 5.0 13.15 5.25 12.7 4.2 L12.55 3.05 Q12.1 5.45 9.65 4.05 8.1 3.2 9.05 2.2 9.55 1.7 10.3 1.35 7.3 0.2 8.75 -1.65 10.2 -3.5 11.3 -1.05 L11.5 -2.6" fill="#ffffff" fill-rule="evenodd" stroke="none"/>
      <path d="M9.9 -0.35 L10.9 -0.15 10.65 -1.0 11.6 0.0 11.65 0.0 12.0 -1.4 12.5 -0.95 13.15 -2.15 13.15 -1.05 13.65 -1.2 13.35 0.15 13.35 0.2 13.6 0.05 14.85 0.0 14.3 0.4 15.25 0.55 14.45 0.85 15.3 1.45 13.5 1.25 14.8 2.65 13.8 2.15 14.1 3.15 13.4 2.5 13.1 3.0 12.6 1.8 12.45 1.7 12.2 1.85 11.8 2.6 11.8 2.05 10.8 2.65 11.15 1.95 10.75 1.9 11.5 1.3 10.9 0.75 10.15 0.55 10.55 0.45 Q9.85 -0.3 9.9 -0.35" fill="#ffd099" fill-rule="evenodd" stroke="none"/>
      <path d="M4.15 -6.1 Q7.45 -5.05 6.9 -2.6 6.6 -1.4 5.65 -0.4 9.7 -2.3 9.75 1.35 9.75 5.0 5.95 3.95 7.85 8.4 4.4 8.5 2.2 8.55 1.75 6.75 L1.7 4.9 Q0.5 8.65 -3.1 5.85 -5.4 4.1 -3.65 2.75 -2.8 2.05 -1.5 1.7 -6.0 -0.9 -3.25 -3.5 -0.5 -6.15 0.7 -1.95 0.9 -3.2 1.4 -4.35 2.45 -6.65 4.15 -6.1" fill="#ff42ca" fill-rule="evenodd" stroke="none"/>
      <path d="M0.95 -0.2 L1.0 -0.2 1.9 -2.35 2.6 -1.55 3.9 -3.3 3.65 -1.55 4.5 -1.65 3.65 0.45 3.7 0.5 4.15 0.3 6.1 0.55 5.15 1.05 6.65 1.5 5.3 1.85 6.55 3.0 3.7 2.25 5.45 4.8 3.95 3.75 4.25 5.4 3.2 4.25 2.7 4.95 2.1 2.95 1.9 2.7 1.45 2.85 0.65 4.05 0.75 3.15 -0.95 3.85 -0.2 2.8 -0.85 2.65 0.45 1.85 -0.4 0.8 -1.55 0.4 -0.8 0.25 -1.7 -1.1 -0.15 -0.6 -0.35 -2.0 0.95 -0.2" fill="#ffbfed" fill-rule="evenodd" stroke="none"/>
    </g>
  </defs>
</svg>
